X:1
T: The Northern Road
C:
R:Jig
Q:180
K:D
M:6/8
L:1/16
d2|A2G2F2 A4D2|D2E2D2 F2E2D2|A2G2F2 A4D2|F6d6|A2G2F2 A4D2|D2E2D2 A2G2F2|E2F2E2 E4F2|G6B6|
A2G2F2 A4D2|D2E2D2 F2E2D2|A2G2F2 A4D2|F6d6|A2G2F2 A4D2|D2E2D2 A2G2F2|E2F2E2 E4F2|G6B6|
A2B2c2 d4F2|A2G2F2 d4F2|A2B2c2 d2A2F2|B6d6|A2B2c2 d2e2d2|c2B2A2 d4A2|B2c2d2 E2F2E2|G6B6|
A2B2c2 d4F2|A2G2F2 d4F2|A2B2c2 d2A2F2|B6d6|f2a2f2 g2e2c2|f2d2B2 A2F2D2|E2F2E2 E4F2|G6B4||
